Educa/src/img/icons/faster.svg

<svg width="29" height="45" viewBox="0 0 29 45" fill="none" xmlns="http://www.w3.org/2000/svg">
<path d="M26.7418 15.9409L17.196 18.0284L21.8634 1.68394C22.2689 0.263404 20.3695 -0.646621 19.5178 0.56326L0.89889 27.016C0.198816 28.0106 1.11139 29.3455 2.29201 29.0547L10.7976 26.9609L6.14549 43.3209C5.74466 44.7306 7.61076 45.629 8.47245 44.4666L28.0825 18.0139C28.8061 17.0375 27.9288 15.6815 26.7418 15.9409ZM10.6578 37.0913L13.9542 25.4988C14.2299 24.5295 13.3555 23.6159 12.3712 23.8582L5.08246 25.6525L17.1885 8.45311L14.0552 19.4254C13.7825 20.3804 14.6283 21.289 15.6044 21.0752L23.871 19.2674L10.6578 37.0913Z" fill="white"/>
<path d="M25.8907 37.0904L22.727 37.0377L24.4074 33.733C24.7374 33.084 24.4788 32.2904 23.8298 31.9605C23.1807 31.6304 22.3872 31.8891 22.0572 32.5381L19.4207 37.7232C18.8844 38.7747 19.5863 39.4639 20.5972 39.6391L23.7534 39.6918L22.0533 43.092C21.7277 43.7432 21.9916 44.535 22.6428 44.8607C23.2953 45.1869 24.0864 44.921 24.4114 44.2712L27.0479 38.9982C27.4809 38.1318 26.8543 37.1047 25.8907 37.0904Z" fill="white"/>
<path d="M5.36642 0.142838C4.71521 -0.18268 3.92338 0.081232 3.59778 0.732355L0.961298 6.00532C0.532518 6.86297 1.14401 7.91308 2.14807 7.91308H5.28038L3.59778 11.2783C3.27217 11.9295 3.53617 12.7212 4.1873 13.0469C4.83974 13.3731 5.63095 13.1073 5.95594 12.4574L8.59242 7.18444C9.03104 6.30711 8.38589 5.27668 7.41329 5.27668H4.27333L5.95594 1.91148C6.28154 1.26027 6.01754 0.468443 5.36642 0.142838Z" fill="white"/>
</svg>

<svg xmlns="http://www.w3.org/2000/svg" width="29" height="45" fill="#fff" xmlns:v="https://vecta.io/nano"><path d="M26.742 15.941l-9.546 2.088 4.667-16.344C22.269.263 20.37-.647 19.518.563L.899 27.016c-.7.995.213 2.33 1.393 2.039l8.506-2.094-4.652 16.36c-.401 1.41 1.465 2.308 2.327 1.146l19.61-26.453c.724-.976-.154-2.332-1.341-2.073zm-16.084 21.15l3.296-11.592a1.32 1.32 0 0 0-1.583-1.641l-7.289 1.794L17.189 8.453l-3.133 10.972a1.32 1.32 0 0 0 1.549 1.65l8.267-1.808-13.213 17.824zm15.233-.001l-3.164-.053 1.68-3.305a1.32 1.32 0 0 0-.578-1.772 1.32 1.32 0 0 0-1.773.578l-2.637 5.185c-.536 1.052.166 1.741 1.177 1.916l3.156.053-1.7 3.4a1.32 1.32 0 0 0 .59 1.769 1.32 1.32 0 0 0 1.769-.59l2.636-5.273c.433-.866-.194-1.893-1.157-1.908zM5.366.143a1.32 1.32 0 0 0-1.769.59L.961 6.005c-.429.858.183 1.908 1.187 1.908H5.28l-1.683 3.365a1.32 1.32 0 0 0 .59 1.769 1.32 1.32 0 0 0 1.769-.59l2.636-5.273c.439-.877-.207-1.908-1.179-1.908h-3.14l1.683-3.365a1.32 1.32 0 0 0-.59-1.769z"/></svg>
